X:1
T:Hear the Cry
T:Hear the Cry
T:Andrew Linnaeus Byers
T:Clara McAlister Brooks, 1907
T:Public Domain Courtesy of the Cyber Hymnal™
T:Public Domain Courtesy of the Cyber Hymnal™
C:Andrew Linnaeus Byers
Z:Public Domain
Z:Courtesy of the Cyber Hymnal™
%%score ( 1 2 ) ( 3 4 )
L:1/8
Q:1/4=94
M:3/4
K:F
V:1 treble 
V:2 treble 
V:3 bass 
V:4 bass 
V:1
 C>C | [CF]3 [CF] [CF]>[CF] | [CG] [CF]3 [B,D]>[A,C] | [CA]3 [FA] [GB]>[EG] | [FA]4 [FA]>[FB] | %5
w: 1.~O’er the|o- cean’s roll- ing|wa- ters, From an|east- ern land to-|day, Comes a|
w: 2.~Home and|friends to us seem|near- er As we|hear their plead- ing|cry; Na- tive|
w: 3.~“Tho’ your|home and friends you|cher- ish, Will you|not re- gard the|cries From the|
w: 4.~Go, my|bro- ther, o’er the|o- cean, Leave be-|hind all earth- ly|dross, Prove to|
 [Fc]3 [Fc] [Fc]>[Fd] | [Fc] [FA]3 [CF]>[FA] | [EG]3 [DG] [FG]>[FG] | [EG]4 C>C | %9
w: cry from hea- then|daugh- ters, “Save us|ere we’re lost for|aye.” Loud we|
w: land seems ev- en|dear- er— Still in|tears they moan and|sigh. “Will not|
w: lips of those who|per- ish, As they|rend the vault- ed|skies? Ma- ny|
w: God thy life’s de-|vo- tion, Lift the|ban- ner of His|cross. Je- sus|
 [CF]3 [CF] [CF]>[CF] | [CG] [CF]3 [B,D]>[A,C] | [CA]3 [FA] [FB]>[Fc] | [Fd]4 [Fd]>[Fd] | %13
w: hear their voic- es|cry- ing, Borne up-|on each float- ing|breeze; For their|
w: some one leave his|na- tion? You are|saved, but we are|lost!” Je- sus|
w: come with sect con-|fu- sion Who them-|selves are in the|night, Bring- ing|
w: left His home in|glo- ry, Died to|set the cap- tives|free; Go and|
 [Fc]3 [Fc] [Fc]>[FB] | [FA] [Fc]3 [CF]>[FA] | [FA]3 [CG] [CF]>[CG] | [CF]4 || %17
w: souls in sin are|dy- ing, While we|id- ly wait at|ease.|
w: died for all cre-|a- tion— Who will|come at an- y|cost?|
w: on- ly more de-|lu- sion: Who will|bring the Gos- pel|light?”|
w: tell the wond- rous|sto- ry, Bear the|mes- sage o’er the|sea.|
[M:4/4]"^Refrain" c>c | (z2 [Fc])A G>F x2 | z [Fd]2 [FB]>[Fd] x3 | [Fc]3 [Fc] [Fc]>[Fc] | %21
w: ||||
w: Who will|* go, oh, who|* will go,|* Bear the mes-|
w: ||||
w: ||||
 [FA]3 [CG] [CF]>[CG] | [CF]4 |] %23
w: ||
w: sage o’er the sea?|Oh,|
w: ||
w: ||
V:2
 C>C | x6 | x6 | x6 | x6 | x6 | x6 | x6 | x4 C>C | x6 | x6 | x6 | x6 | x6 | x6 | x6 | x4 || %17
[M:4/4] x2 | c4- E>G x2 | d4- FF>F x | x6 | x6 | x4 |] %23
V:3
 [F,A,]>[F,A,] | [F,A,]3 [F,A,] [F,A,]>[F,A,] | [F,B,] [F,A,]3 F,>F, | F,3 [F,C] [C,C]>[C,C] | %4
w: ~ ~|~ ~ ~ ~|~ ~ ~ ~|~ ~ ~ ~|
 [F,C]4 F,>[F,G,] | [F,A,]3 [F,A,] [F,A,]>[F,B,] | [F,A,] [F,C]3 [F,A,]>[F,C] | %7
w: ~ ~ ~|~ ~ ~ ~|~ ~ ~ ~|
 [G,C]3 [G,=B,] [G,,D]>[G,,D] | [C,C]4 [E,B,]>[E,B,] | [F,A,]3 [F,A,] [F,A,]>[F,A,] | %10
w: ~ ~ ~ ~|~ ~ ~|~ ~ ~ ~|
 [C,B,] [F,A,]3 F,>F, | F,3 [_E,C] [D,B,]>[C,A,] | [B,,B,]4 [B,,B,]>[B,,B,] | %13
w: ~ ~ ~ ~|~ ~ ~ ~|~ ~ ~|
 [F,A,]3 [F,A,] [F,A,]>[F,C] | [F,C] [F,A,]3 [F,A,]>[F,C] | [C,C]3 [C,B,] [C,A,]>[C,B,] | %16
w: ~ ~ ~ ~|~ ~ ~ ~|~ ~ ~ ~|
 [F,A,]4 ||[M:4/4] z2 | z2 [C,G,]>[C,B,] [F,A,] z3 | %19
w: ~||Who will go,|
 z [B,,B,] [B,,B,]>[B,,B,] [B,,B,]2 [B,,D]>[B,,B,] | [F,A,]3 [F,A,] [F,A,]>[F,A,] | %21
w: oh, who will go * *||
 [C,C]3 [C,B,] [C,A,]>[C,B,] | [F,A,]4 |] %23
w: ||
V:4
 x2 | x6 | x4 F,>F, | F,3 x3 | x4 F,3/2 x/ | x6 | x6 | x6 | x6 | x6 | x4 F,>F, | F,3 x3 | x6 | x6 | %14
 x6 | x6 | x4 ||[M:4/4] x2 | x8 | x8 | x6 | x6 | x4 |] %23

